svg/fluentui-system-icons/ic_fluent_headset_48_filled.svg

<svg width="48" height="48" viewBox="0 0 48 48" fill="none" xmlns="http://www.w3.org/2000/svg">
<path d="M12.5 18C12.5 11.6487 17.6487 6.5 24 6.5C30.3513 6.5 35.5 11.6487 35.5 18V20H30.25C29.0074 20 28 21.0074 28 22.25V29.75C28 30.9926 29.0074 32 30.25 32H33.75C36.0972 32 38 30.0972 38 27.75V21.25C38 21.2078 37.9979 21.1661 37.9938 21.125C37.9979 21.0839 38 21.0422 38 21V18C38 10.268 31.732 4 24 4C16.268 4 10 10.268 10 18V32C10 36.5564 13.6937 40.25 18.25 40.25H19.1575C19.7126 42.4065 21.6702 44 24 44C26.7614 44 29 41.7614 29 39C29 36.2386 26.7614 34 24 34C21.6702 34 19.7126 35.5935 19.1575 37.75H18.25C15.0744 37.75 12.5 35.1756 12.5 32V31.6241C13.0337 31.8656 13.6261 32 14.25 32H17.75C18.9926 32 20 30.9926 20 29.75V22.25C20 21.0074 18.9926 20 17.75 20H12.5V18Z" fill="#212121"/>
</svg>

<svg xmlns="http://www.w3.org/2000/svg" width="48" height="48"><path d="M12.5 18c0-6.351 5.149-11.5 11.5-11.5S35.5 11.649 35.5 18v2h-5.25A2.25 2.25 0 0 0 28 22.25v7.5A2.25 2.25 0 0 0 30.25 32h3.5A4.25 4.25 0 0 0 38 27.75v-6.5c0-.042-.002-.084-.006-.125.004-.041.006-.083.006-.125v-3c0-7.732-6.268-14-14-14s-14 6.268-14 14v14a8.25 8.25 0 0 0 8.25 8.25h.907a5 5 0 1 0 0-2.5h-.907A5.75 5.75 0 0 1 12.5 32v-.376a4.234 4.234 0 0 0 1.75.376h3.5A2.25 2.25 0 0 0 20 29.75v-7.5A2.25 2.25 0 0 0 17.75 20H12.5v-2Z"/></svg>
